X: 1
T: Izi \vco\vcek
C: R.B.Iverson (1992)
M: 4/4
L: 1/8
K: A^c_B
|: "A"GA/A/ AB BA AG |  GA/A/ AB cd e2 \
|     c/d/e ed dc cB |1 "Gm"BA AG "A"EE Ez :|2 "Gm"BA AG "A"AA Az ||
|: "A"c/d/e ed dc cB |  c/d/e ed "Gm"dc cB \
|  "A"c/d/e ed dc cB |1 "Gm"BA AG "A"EE Ez :|2 "Gm"BA AG "A"AA Az |]
